!! J.S. Bach "Double of the Allemanda" from Partita No. 1, solo violin, BWV 1002.
!! From 'Neue Ausgabe Saemtlicher Werke' Serie VI: Kammermusikwerke,
!! Band 1 ('Werke fuer Violine') Baerenreiter Kassel (Basel) 1958; p.11
!! This file has been error-checked using the double-entry method.
!! NOTE: The repeats at the end of bar 31 and at the end of the movement
!!       have been expanded in this encoding.
**kern
*M2/2
16ff#
=1
{16b
16dd}
{16ff#
16bb}
{16gg
16ee}
{16cc#
16ee}
{16a#
16gg}
{16ff#
16ee}
{16dd
16b}
{16f#
16an}
=2
{16g
16ff#}
{16ee
16dd}
{16cc#
16ee}
{16gg
16b}
{16a#
16cc#}
{16f#
16e}
16d
16b
16c#
16cc#
=3
{16dd
16f#
16B}
16c#
{16d
16e}
{16f#
16g}
{16a
16d}
{16f#
16a}
{16dd
16ee}
{16ff#
16a}
=4
{16b
16g}
{16b
16dd}
{16gg
16b}
{16g
16e}
{16c#
16e
16a}
16gg
16ff#
16d
16g
16ee
=5
{16cc#
16a}
{16cc#
16ee}
{16aa
16ccn}
{16a
16f#}
{16d#
16f#
16b}
16ff#
{16aa
16cccn}
{16bb
16aa}
=6
{16gg
16bb}
{16gg
16ee}
{16b
16dd}
{16cc#
16b}
{16a#
16gg}
{16ff#
16e}
{16dn
16f#}
{16b
16dd}
=7
{16g#
16ff#}
{16ee
16d}
{16c#
16e}
{16gn
16B}
{16A#
16f#}
{16cc#
16ee}
{16dd
16f#
16B}
16dd
=8
{16cc#
16ff#}
{16cc#
16a#}
{16f#
16a#}
{16cc#
16e}
{16d
16ff#}
{16dd
16b}
{16g#
16b}
{16ee
16a}
=9
{16b
16ee}
{16ff#
16cc#}
{16dd
16b}
{16gg#
16b}
{16e#
16cc#}
{16bb
16gg#}
{16aa
16cc#
16f#}
16aa
=10
{16gg#
16cc#}
{16ee#
16gg#}
{16ccc#
16een}
{16a#
16ee}
{16B
16f#}
{16ee
16cc#}
{16dd
16ff#}
{16bb
16cc#}
=11
{16ddd
16ee#}
{16g#
16ee#}
16c#
16ddd
{16ee#
16ccc#}
{16bb
16aa}
{16gg#
16ff#}
{16cc#
16ff#}
{16gg#
16ee}
=12
{16ff#
16cc#}
{16a#
16een}
{16dd
16e#}
{16g#
16b}
{16a#
16f#}
{16a#
16cc#}
8.ff#
16ff#
=13
{16b
16dd}
{16ff#
16bb}
{16gg
16ee}
{16cc#
16ee}
{16a#
16gg}
{16ff#
16ee}
{16dd
16b}
{16f#
16an}
=14
{16g
16ff#}
{16ee
16dd}
{16cc#
16ee}
{16gg
16b}
{16a#
16cc#}
{16f#
16e}
16d
16b
16c#
16cc#
=15
{16dd
16f#
16B}
16c#
{16d
16e}
{16f#
16g}
{16a
16d}
{16f#
16a}
{16dd
16ee}
{16ff#
16a}
=16
{16b
16g}
{16b
16dd}
{16gg
16b}
{16g
16e}
{16c#
16e
16a}
16gg
16ff#
16d
16g
16ee
=17
{16cc#
16a}
{16cc#
16ee}
{16aa
16ccn}
{16a
16f#}
{16d#
16f#
16b}
16ff#
{16aa
16cccn}
{16bb
16aa}
=18
{16gg
16bb}
{16gg
16ee}
{16b
16dd}
{16cc#
16b}
{16a#
16gg}
{16ff#
16e}
{16dn
16f#}
{16b
16dd}
=19
{16g#
16ff#}
{16ee
16d}
{16c#
16e}
{16gn
16B}
{16A#
16f#}
{16cc#
16ee}
{16dd
16f#
16B}
16dd
=20
{16cc#
16ff#}
{16cc#
16a#}
{16f#
16a#}
{16cc#
16e}
{16d
16ff#}
{16dd
16b}
{16g#
16b}
{16ee
16a}
=21
{16b
16ee}
{16ff#
16cc#}
{16dd
16b}
{16gg#
16b}
{16e#
16cc#}
{16bb
16gg#}
{16aa
16cc#
16f#}
16aa
=22
{16gg#
16cc#}
{16ee#
16gg#}
{16ccc#
16een}
{16a#
16ee}
{16B
16f#}
{16ee
16cc#}
{16dd
16ff#}
{16bb
16cc#}
=23
{16ddd
16ee#}
{16g#
16ee#}
16c#
16ddd
{16ee#
16ccc#}
{16bb
16aa}
{16gg#
16ff#}
{16cc#
16ff#}
{16gg#
16ee}
=24
{16ff#
16cc#}
{16a#
16een}
{16dd
16e#}
{16g#
16b}
{16a#
16f#}
{16a#
16cc#}
8.ff#
16cc#
=25
{16cc#
16gg}
{16ee
16cc#}
{16a#
16f#}
{16cc#
16en}
{16d
16f#}
{16b
16d}
{16c#
16B}
{16A#
16e}
=26
{16d
16B}
{16d
16f#}
{16b
16g}
{16f#
16e}
{16d#
16f#}
{16an
16ccn}
{16b
16a}
{16ff#
16a}
=27
{16g
16b}
{16ee
16gg}
{16ff#
16aa}
{16dd#
16ee}
{16b
16ee}
{16dd#
16ff#}
{16bb
16ff#}
{16dd#
16a}
=28
{16g#
16b}
{16ee
16gg#}
{16bb
16ddd}
{16cccn
16bb}
{16ccc
16aa}
{16ee
16ccn}
{16a
16ggn}
{16ff#
16ee}
=29
{16dd#
16ff#}
{16aa
16cccn}
{16bb
16aa}
{16dd
16aa}
{16gg
16bb}
{16gg
16ee}
{16b
16gg}
{16ddd
16ffn}
=30
{16ee
16b}
{16ccn
16ee}
{16a#
16b}
{16d#
16e}
{16G
16e}
{16b
16gg}
{16ff#
16ee}
{16b
16dd#}
=31
{16e
16g}
{16b
16ee}
{16b
16g}
{16e
16g}
{16c#
16an}
{16ee
16g}
16f#
16aa
16e
16gg
=32
{16d
16gg}
{16ff#
16ee}
{16dd
16ff#}
{16aa#
16bb}
{16ee
16cc#}
{16a#
16cc#}
16d
16ff#
16c#
16ee
=33
{16B
16ee}
{16dd
16cc#}
{16b
16dd}
{16ff#
16gg}
{16ccn
16an}
{16f#
16a}
{16d
16f#}
{16a
16cc}
=34
{16ff#
16b}
{16d#
16f#}
{16b
16dd#}
{16ff#
16aa}
{16gg
16ee}
{16b
16ddn}
{16ccn
16ee}
{16gg
16b}
=35
{16a#
16gg
16ff#}
16e
16d
16bb
{16aa#
16bb}
{16ee#
16ff#}
{16a#
16b}
{16f#
16dd}
{16cc#
16a#}
=36
16b
{16B
16d
16f#}
{16b
16dd}
{16ff#
16aa#}
{16bb
16ff#}
{16dd
16b}
8.B
16cc#
=37
{16cc#
16gg}
{16ee
16cc#}
{16a#
16f#}
{16cc#
16en}
{16d
16f#}
{16b
16d}
{16c#
16B}
{16A#
16e}
=38
{16d
16B}
{16d
16f#}
{16b
16g}
{16f#
16e}
{16d#
16f#}
{16an
16ccn}
{16b
16a}
{16ff#
16a}
=39
{16g
16b}
{16ee
16gg}
{16ff#
16aa}
{16dd#
16ee}
{16b
16ee}
{16dd#
16ff#}
{16bb
16ff#}
{16dd#
16a}
=40
{16g#
16b}
{16ee
16gg#}
{16bb
16ddd}
{16cccn
16bb}
{16ccc
16aa}
{16ee
16ccn}
{16a
16ggn}
{16ff#
16ee}
=41
{16dd#
16ff#}
{16aa
16cccn}
{16bb
16aa}
{16dd
16aa}
{16gg
16bb}
{16gg
16ee}
{16b
16gg}
{16ddd
16ffn}
=42
{16ee
16b}
{16ccn
16ee}
{16a#
16b}
{16d#
16e}
{16G
16e}
{16b
16gg}
{16ff#
16ee}
{16b
16dd#}
=43
{16e
16g}
{16b
16ee}
{16b
16g}
{16e
16g}
{16c#
16an}
{16ee
16g}
16f#
16aa
16e
16gg
=44
{16d
16gg}
{16ff#
16ee}
{16dd
16ff#}
{16aa#
16bb}
{16ee
16cc#}
{16a#
16cc#}
16d
16ff#
16c#
16ee
=45
{16B
16ee}
{16dd
16cc#}
{16b
16dd}
{16ff#
16gg}
{16ccn
16an}
{16f#
16a}
{16d
16f#}
{16a
16cc}
=46
{16ff#
16b}
{16d#
16f#}
{16b
16dd#}
{16ff#
16aa}
{16gg
16ee}
{16b
16ddn}
{16ccn
16ee}
{16gg
16b}
=47
{16a#
16gg
16ff#}
16e
16d
16bb
{16aa#
16bb}
{16ee#
16ff#}
{16a#
16b}
{16f#
16dd}
{16cc#
16a#}
=48
16b
{16B
16d
16f#}
{16b
16dd}
{16ff#
16aa#}
{16bb
16ff#}
{16dd
16b}
8.B
==
*-
